X:1
T:Eichendorff-Lieder
T:Nachtzauber
T:Eichendorff-Lieder
T:8. Nachtzauber
T:Hugo Wolf
T:Joseph von Eichendorff
T:OpenScore (CC0)
T:OpenScore (CC0)
T:OpenScore (CC0)
T:OpenScore (CC0)
T:OpenScore (CC0)
T:OpenScore (CC0)
T:OpenScore (CC0)
T:OpenScore (CC0)
T:OpenScore (CC0)
T:OpenScore (CC0)
T:OpenScore (CC0)
C:Hugo Wolf
Z:OpenScore (CC0)
%%score ( 1 2 ) { ( 3 7 ) | ( 4 5 6 ) }
L:1/8
Q:1/4=60
M:3/4
K:F#
V:1 treble nm="Part_1"
V:2 treble 
V:3 treble nm="Part_2"
V:7 treble 
V:4 bass 
V:5 bass 
V:6 bass 
V:1
"^Sanft fliessend" z6 | z6 | z6 | z6 | z6 |!p! C3/2 F/ F F A A | ^B2 c z A c | =d3 d c ^B | %8
w: |||||Hörst du nicht die Quel- len|ge- hen zwi- schen|Stein und Blu- men|
w: |||||Hear'st thou not the brook- lets|stream- ing where sweet|Spring, her blos- soms|
 (^d4 c) z | F F F F F F | (=F2- F>_G) F z | =E E B B (3(BA) G | A4 A z |!p! B B!<(! d4-!<)! | %14
w: weit _|nach den stil- len Wal- des-|se- * * en,|wo die Mar- mor- bil- * der|ste- hen|in der schö-|
w: strewed, _|where the wood- land lakes are|dream- * * ing,|by the mar- ble i- * cons|gleam- ing|in sweet Na-|
!mf!!>(! d c B3!>)!!p! c | c6- | c2 z2 z2 | z B2 B B B | B3/2!<(! c/ (c B2) =d!<)! | %19
w: * nen Ein- sam-|keit?|_|Von den Ber- gen|sacht her- nie- * der,|
w: * ture's so- li-|tude?|_|From the moun- tain|slopes de- scend- * ing,|
!mp! z!<(! c2 =d c ^d | c3/2 =e/ (e!<)!!mf! d2)[Q:1/4=55]"^rit." ^e | %21
w: wek- kend die ur-|al- ten Lie- * der,|
w: an- cient strains me-|lo- dious~ blend- * ing,|
!pp! z[Q:1/4=50]"^ruhig" f- f2 c2 | A3 A G3/2 G/ | F2- F z F F | %24
w: steigt * die|wun- der- ba- re|Nacht, _ und die|
w: on- * ward|comes ma- jes- tic|Night, _ up from|
[Q:1/4=60]"^a tempo" =d3 d c3/2 B/ | A2 c z F F |!<(! ^d _e =f3!<)!!>(! e | %27
w: Grün- de glän- zen|wie- der, wie du's|oft im Traum ge-|
w: sil- van groves a-|scend- ing vi- sions,|fair as dreams, de-|
 (=d2!>)!!p! _d) z =c =B | A C =D3 ^E | F4 z2 | z6 | z6 | z6 | z6 |!p! C3/2 F/ F F A z/ A/ | %35
w: dacht, _ wie du's|oft im Traum ge-|dacht.|||||Kennst die Blu- me du, ent-|
w: light, _ charm the|sens- es, haunt the|sight.|||||Knowst the flow'r- et fair, un-|
 ^B2 c z A c | =d3 d c3/2 ^B/ | (^d4 c) z | z2 F F F3/2 F/ | z2 =F3/2 _G/ G F | %40
w: spros- sen in dem|mond- be- glänz- ten|Grund? _|Aus der Knos- pe,|halb er- schlos- sen.|
w: fold- ing to the|moon its gold- en|tips? _|From the blos- som,|na- ture's~ mould- ing,|
 z2[Q:1/4=58] =E3/2 E/[Q:1/4=55]"^rit." B B |[Q:1/4=60]"^a tempo" (3(BA) G A2 A z | B3/2 B/ =d4- | %43
w: jun- ge Glie- der|blü- * hend spros- sen,|wei- sse Ar-|
w: limbs are seen their|charms * un- fold- ing,|snow- y arms,|
 d =d c3 B |!p!!<(! (^e6!<)! |!mp!!>(! f4)!>)!!p! z2 | %46
w: * me, ro- ter|Mund,|_|
w: _ and crim- son|lips,|_|
 z"^mit immer gesteigertem Ausdruck" B2 B B3/2 B/ | B c (c B2) =d | z c2 =d c ^d | %49
w: und die Nach- ti-|gal- len schla- * gen|und rings hebt es|
w: and the night- in-|gale is plead- * ing|neath the si- lent|
 c3/2 =e/ (e d2)[Q:1/4=56][Q:1/4=53] ^e |!mp! z"^ruhig" f- f3/2 z/ c2 | A3/2 A/ !>!G3 G | %52
w: an zu kla- * gen,|ach, _ vor|Lie- be to- des-|
w: stars re- ced- * ing,|ah! _ fond|me- mory~ loves to|
 F2- F z!p![Q:1/4=50]"^rit." F F |[Q:1/4=60]"^a tempo" =d3 d c3/2 B/ | A2 c2 z2 | z2 z2!p! (e2- | %56
w: wund, _ von ver-|sunk'- nen schö- nen|Ta- gen|komm,|
w: rove _ in the|grove, where love lies|bleed- ing|come,|
!<(! (e4 d))!<)!!f! f |!p! f C =D3 ^E | F4- F z | z2!p! ((=d4 | c2-) c) z z2 | z2!pp! (B4 | A6-) | %63
w: _ _ o|komm zum stil- len|Grund! _|komm!|_ _|komm!|_|
w: _ _ o|come to si- lent|grove! _|come!|_ _|come!|_|
 A6- | A z[Q:1/4=57] z2[Q:1/4=54] z2 |[Q:1/4=50] z6[Q:1/4=47] | z6 |] %67
w: ||||
w: ||||
V:2
 x6 | x6 | x6 | x6 | x6 | x6 | x6 | x6 | x6 | x6 | x6 | x6 | x6 | x6 | x6 | x6 | x6 | x6 | x6 | %19
 x6 | x6 | x6 | x6 | x6 | x6 | x6 | x2 x!mf! x x2 | x6 | x6 | x6 | x6 | x6 | x6 | x6 | x6 | x6 | %36
 x6 | x6 | x6 | x6 | x6 | x6 | x6 | x6 | x6 | x6 | x6 | x6 | x6 | x4"^rit." x x | x6 | x6 | x6 | %53
 x6 | x6 | x6 | x6 | x6 | x6 | x6 | x6 | x6 | x6 | x6 | x6 | x6 | x6 |] %67
V:3
!pp! (B,/^^F/G/B,/ F/G/B,/F/ G/B,/F/G/) | (B,/^^F/G/B,/ F/G/B,/F/ G/B,/F/G/) | %2
 (B,/^^F/G/B,/ F/G/B,/F/ G/B,/F/G/) | (B,/^^F/G/B,/ F/G/B,/F/ G/B,/F/G/) | %4
 (B,/^^F/G/B,/ ^^D/E/B,/D/ E/B,/D/E/) | (A,/E/F/A,/ E/F/A,/E/ F/A,/E/F/) | %6
 (=A,/E/F/A,/ E/F/^A,/E/ F/A,/E/F/) | (^B,/E/F/B,/ E/F/B,/E/ F/=A,/E/F/) | %8
 (^A,/E/F/A,/ E/F/A,/E/ F/A,/E/F/) | x6 | ([=A,_E]/^G/=A/[A,E]/ G/A/[A,E]/G/ A/[A,E]/G/A/) | %11
"_cresc." ([G,B,]/^^F/G/[G,B,]/ F/G/[G,B,]/F/ G/[G,B,]/F/G/) | %12
 ([=D_A]/^c/=d/[DA]/ c/d/[DA]/c/!mf! d/[D^G]/c/d/) | %13
!p! (^D/^^c/!<(!^d/B,/ A/B/x/x/ x/ x/!<)! x/ x/) | %14
!mf!!>(! (=E/d/=e/E/ ^A/B/B,/F/ =G/=G,/!>)!!p!E/^E/-) |!pp! (^e/d/c/^B/ =B/G/E/D/ !>!C2) | %16
 =e/d/c/^G/ e/d/c/G/ !>!F2 |!p! ([=A,B,]/G/=A/[A,B,]/ G/A/[A,B,]/G/ A/[A,B,]/G/A/) | %18
 ([=A,B,]/G/=A/!<(!^A,/ ^^G/^A/B,/A/ B/B,/A/B/) | (B,/^B,/C/^B/ c/C/=D/B/ c/^^C/^D/B/) | %20
 (c/D/=E/=e/ E/^E/F/!mf!d/-!<)!"^rit."!>(! d>=d-)!>)! | %21
!p!"^ruhig" (=d/E/F/^B/ c/^^G/A/f/ g/^G/c/g/ | a/A/c/e/ f/^B/c/a/ =b/=B/=e/b/ | %23
 ^b/d/=e/b/- b/d/e/c'/- c'/) (D/=E/c/-) |!pp!"^a tempo" (c/B/^E/=D/) (c/B/E/D/) (c/B/E/D/) | %25
 (^d/c/E/F/ ^^G/A/^B,/!<(!C/ D/=E/^^G,/A,/) | (c/B/F/D/)!<)!!mf! (_d/=c/=F/_E/)!>(! (d/c/F/E/) | %27
 (=c/_B/=F/=D/)!>)!!p! (_c/B/F/_D/) (B/_A/=D/=B,/) | (G/^F/^^G,/A,/"_dim." =D/B,/x/x/ x x/ x/) | %29
!pp! z6 | z/!pp! (^^F/G/B,/ F/G/B,/F/ G/B,/F/G/) | (B,/^^F/G/B,/ F/G/B,/F/ G/B,/F/G/) | %32
 (B,/^^F/G/B,/!pp! F/G/B,/F/ G/B,/F/G/ | B,/^^F/G/B,/ ^^D/E/B,/D/ E/B,/D/E/) | %34
!pp! (A,/E/F/A,/ E/F/A,/E/ F/A,/E/F/) | (=A,/E/F/A,/ E/F/^A,/E/ F/A,/E/F/) | %36
 (^B,/E/F/B,/ E/F/B,/E/ F/=A,/E/F/) | (^A,/E/F/A,/ E/F/A,/E/ F/A,/E/F/) | z6 | %39
 ([=A,_E]/^G/=A/[A,E]/ G/A/[A,E]/G/ A/[A,E]/G/A/) | %40
!p! ([G,B,]/^^F/G/"_cresc."[G,B,]/ F/G/[G,B,]/F/ G/[G,B,]/F/(G/) | %41
 ([=D_A]/)^c/=d/[DA]/ c/d/[DA]/c/!mf! d/[D^G]/c/d/) | %42
!p! (^D/!<(!^^c/d/B,/ A/B/x/x/!<)![I:staff +1] =D/=D,/^A,/B,/) | %43
!>(![I:staff -1] (=E/^d/=e/E/ ^A/B/B,/F/ =G/=G,/!>)!E/^E/-) |!pp! (^e/d/c/^B/ =B/G/E/D/ !>!C2 | %45
 =e/)d/c/=G/ e/d/c/^G/ !>!F2 |!p! ([=A,B,]/G/=A/[A,B,]/ G/A/[A,B,]/G/ A/[A,B,]/G/A/) | %47
 ([=A,B,]/G/=A/^A,/ ^^G/^A/B,/A/ B/B,/A/B/) |!<(! B,/^B,/C/^B/ c/C/=D/B/ c/^^C/^D/B/ | %49
 c/D/=E/=e/ E/^E/!<)!!mf!F/d/-"^rit." d>=d |!p! (=d/E/"^ruhig"F/^B/ c/^^G/A/f/ g/^G/c/g/ | %51
!<(! a/A/c/!<)!a/ b/!mf!B/=e/b/-!>(! b/^B/e/^b/-!>)! | %52
 b/!p!^B/c/c'/- c'/d/=e/c'/-!pp! c'/)"^rit." (D/=E/c/-) | (c/B/^E/=D/) (c/B/E/D/) (c/B/E/D/) | %54
 (^d/c/E/F/ ^^G/A/^B,/C/ D/=E/^^G,/!>!A,/) |!<(! !>![Dd]>!<)!!>![Dd]!mf!!>(! [=F=f]3!>)! [_E_e] | %56
!p! =F4 x2 | [_B,_D_B][_G,D] (=D/=B,/^E,/^F,/ A,/^G,/x/x/) | x6 | %59
 z/!pp! (^^F/G/B,/ F/G/B,/F/ G/B,/F/G/) | z/ (^^G,/A,/^B,/ C/E/F/^B/ c/^^G/A/f/) | %61
 z/ (^^f/g/B/ f/g/B/f/ g/B/f/g/) | %62
!p! (!arpeggio![CFAc]>[^F^f] !arpeggio![FAcf][Ff] !arpeggio![Acfa][Aa] | %63
!pp! !arpeggio![^Bf^b]>!>(![dd'] !arpeggio![dad'][dd'] !arpeggio![faf'][ff'])!>)! | %64
!ppp! ([ac'a']>[^bf']"_dim." [ac'a']>[bf'] [ac'a']>[bf'] | [ac'a']4) [A,CA]2- | [A,CA]2 z2 z2 |] %67
V:4
 z2!p! (=D>=E D2-) | D z (=D>=E D2-) | D z!p! (C>^D C2-) | (C>D C2-) (C>D | C4 C,,2) | %5
 z2!pp! (C,4- | C,>D, C,4) | z2 ((=D,4 | C,2-) C,>^D, C,2-) | %9
 ([=E,A,]/D/=E/[E,A,]/ D/E/[E,A,]/D/ E/[E,A,]/D/E/) | (=C,,>_D,, C,,4) | z2 (B,,>^C, B,,2) | %12
 z2 z2 (^A,,2 | B,,4) D/D,/^A,/B,/ | =G,,>=A,, G,,2 =G,,,2 | z2 [C,E,B,]4 | z2 [F,A,]4 | %17
 B,, B,,2 B,,2 B,,- | B,, D,2 (D,=E,) (E, |^E,) E,2 F,2 ^^F,- |F, G,2 (=A,=C[=D,=B,]) | %21
 x3 A,2 G,- |G, F,2 F,2 =E,- |E, =E,2 (F,CF,) | z [F,B,]2 [^^F,B,]2 [G,B,] | %25
 z [C,F,C]2 [C,A,]2 [F,,=E,] | z [F,B,] z [=F,=A,]2 [F,A,] | %27
 z [=F,_B,]2 [F,B,] ([_A,,_E,][=B,,^F,]) | z [C,F,]2 F,/E,/ =A,/^G,/=D,/C,/- | %29
 (C,/!<(!^^G,,/A,,/^B,,/ C,/E,/F,/^B,/!<)! C/^^G,/A,/!mp!F/) |!p! (!>!=D2- D>=E D2-) | %31
 D/ z/ (=D- D>=E D2-) | D z!p! (C2- C>^D | C4 C,,2) | z2 (C,4- | C,>D, C,4) | z2 ((=D,4 | %37
 C,2-) C,>^D, C,2-) | ([=E,A,]/D/=E/[E,A,]/ D/E/[E,A,]/D/ E/[E,A,]/D/E/) | (=C,,>_D,, C,,4) | %40
 z2 (B,,>^C, B,,2) | z2 z2 (^A,,2 | B,,6) | =G,,>=A,, G,,2 =G,,,2 | %44
 z2 !arpeggio!!>!C>[I:staff -1]!>!D[I:staff +1] x2 | z2 [F,A,]4 | B,, B,,2 B,,2 B,,- | %47
B,, D,2 (D,=E,) (E, | ^E,) E,2 F,2 ^^F,- |F, G,2 (=A,=C=B,) | x3 A,2 (G, | %51
F,) (F,=E,) (B,,^B,,) [B,,E,]- |[B,,E,] =E,2 F,CF, | %53
 z (!tenuto![F,B,]2 !tenuto![^^F,B,]2 !tenuto![G,B,]) | z [C,F,C]2 [C,A,] !>![F,F]>!>![F,F] | %55
 (C/B,/F,/B,,/) (_D/=C/=A,/=F,/) (D/C/A,/F,/) | %56
 (=C/_B,/=F,/_B,,/) (_C/=B,/F,/_D,/) (B,/_A,/_G,/__E,/) | (_A,/_G,/_D,/_B,,/) =D,2 =B,,2 | %58
 (C,/^^G,,/A,,/^B,,/ C,/E,/F,/^B,/ C/^^G,/A,/F/) |!p! (=D2- D>=E D2) | [F,,C,F,]6 | %61
!pp! (=D2- D>=E D2) | (F,,/C,/F,/A,/) (A,,/C,/F,/A,/) (C,/F,/A,/C/) | %63
 (D,/A,/^B,/F/)[K:treble] (F,/B,/D/A/) (B,/F/A/d/) | (f/A/c/d/ f/A/c/d/ f/A/c/d/ | %65
 [Fcf]4)[K:bass] [F,,C,F,]2- | [F,,C,F,]2 z2 z2 |] %67
V:5
 x6 | x6 | x6 | x6 | x6 | x4 F,,2- | F,,4 F,,2- | F,,4 F,,2- | F,,2 F,,4- | F,,2 (F,,>G,, F,,2) | %10
 x6 | (=E,,6 | =F,,>_G,, F,,2 =E,,2) | ^D,,2 =E,,2 ^E,,F,, | x6 | F,,,6- | [F,,,F,,]6 | %17
 D,, (D,,=E,,) (E,,^E,,) (E,, | F,,) (F,,^^F,,) G,,2 (G,, |G,,) (G,,=A,,) (A,,^A,,) (A,, | %20
B,,) B,,^B,, B,,2 z | [C,^A,] [C,A,]2 (C,=B,,) ([B,,C,-] | %22
[A,,C,]) [A,,C,]2 ((([F,,A,,][G,,B,,]))) ([G,,B,,] |^^G,,) (G,,A,,) [A,,=E,]- [A,,E,]2 | x6 | x6 | %26
 x6 | _B,,,6 | C,,4 x [C,,B,,] | x6 | x6 | x6 | x6 | x6 | x6 | x6 | x6 | x6 | F,,2 (F,,>G,, F,,2) | %39
 x6 | x6 | x6 | ^D,,2 =E,,2!mf! ^E,,F,, | x6 | F,,,6- | x6 | D,, (D,,=E,,) (E,,^E,,) (E,, | %47
F,,) (F,,^^F,,) G,,2 G,,- | G,, (G,,=A,,) (A,,^A,,) (A,, |B,,) (B,,^B,,) (B,,2 =D,) | %50
 [C,^A,] [C,A,]2 (C,B,,) (([B,,C,-] |[A,,C,])) ((([F,,A,,][G,,B,,]))) [G,,=E,]2 (G,, | %52
^^G,,) (G,,A,,) [A,,=E,]- [A,,E,]2 | x6 | x6 | B,,2 =F,,4 | _B,,4 _A,,_C, | %57
 _D,2 (=A,,^G,,F,,[C,,E,,]) | x6 | x6 | x6 | x6 | x6 | x2[K:treble] x4 | x6 | x4[K:bass] x2 | x6 |] %67
V:6
 x6 | x6 | x6 | x6 | x6 | x6 | x6 | x6 | x6 | C,6 | x6 | x6 | x6 | x2 x F,/ ^^C/ x2 | x6 | x6 | %16
 x6 | x6 | x6 | x6 | x6 | x6 | x6 | x6 | F,,,6- | [F,,,F,,]6 | B,,,2 =F,,4 | x6 | x3 [G,,=D,]2 x | %29
 [F,,,C,,F,,]3 [F,,,C,,F,,]3 | x6 | x6 | x6 | x6 | x4 F,,2- | F,,4 F,,2- | F,,4 F,,2- | %37
 F,,2 F,,4- | C,6 | x6 | (=E,,6 | =F,,>_G,, F,,2 =E,,2) | x2 x F,/^C/ x2 | x6 | x2 [C,E,B,]4 | %45
 [F,,,F,,]6 | x6 | x6 | x6 | x6 | x6 | x6 | x6 | F,,,6- | [F,,,F,,]6 | x6 | x6 | x4 x =D,/C,/- | %58
 [F,,,C,,F,,]3 [F,,,C,,F,,]3 | x6 | x6 | x6 | x6 | x2[K:treble] x4 | F6 | x4[K:bass] x2 | %66
 F,,,2 x4 |] %67
V:7
 x6 | x6 | x6 | x6 | x6 | x6 | x6 | x6 | x6 | x6 | x6 | x6 | x6 | x6 | x6 | %15
 E2[I:staff +1] !arpeggio!!>!C>[I:staff -1]!>!D C/[I:staff +1]^B,/=B,/G,/ | %16
[I:staff -1] [=E=G]2[I:staff +1] !arpeggio!!>!F>[I:staff -1]!>!^G F/^E/=E/C/ | x6 | x6 | x6 | %20
 x2 x2 d/F/^^F/=d/ | x6 | x6 | x6 | x6 | x6 | x6 | x6 | x6 | x6 | x6 | x6 | x6 | x6 | x6 | x6 | %36
 x6 | x6 | x6 | x6 | x6 | x6 | x6 | x6 | E2 x x/ x/ C/[I:staff +1]^B,/=B,/G,/ | %45
[I:staff -1] =E2[I:staff +1] !arpeggio!!>!F>[I:staff -1]!>!G F/^E/=E/C/ | x6 | x6 | x6 | %49
 x2 x2 d/!>(!F/=G/=d/-!>)! | x6 | x6 | x6 | x6 | x6 | F2 =A4 | [=D=d]2 [_D_d]2 [_E=c][__E_c] | x6 | %58
 x6 | x6 | x6 | x6 | x6 | x6 | x6 | x6 | x6 |] %67

